assets/images/members/i4p-informatics/i4p-informatics.svg

<svg xmlns="http://www.w3.org/2000/svg" baseProfile="tiny-ps" viewBox="0 0 596 192"><title>I4P</title><style>.shp1{fill:#33373f}</style><path id="I" fill-rule="evenodd" d="m221.21 95.52-30.13 17.35v78.35H.47V.62h190.61v77.51zM114.89 47.19h-38.2v97.43h38.2z" style="fill:#5eb1c9"/><path id="4" fill-rule="evenodd" d="m423.4 95.52-30.13 17.35v78.35h-190.6v-72.98l18.57-10.7 20.1-11.62-20.1-11.61-18.57-10.7V.62h190.6v77.51zm-70.49 21.89h-17.98V47.03h-30.02l-44.2 65.02-7.71 10.63-2.19 2.97c6.71.14 10.54.21 11.51.21l5.12-.06h30.09v18.53h37.4v-18.27h17.98z" class="shp1"/><path id="in4" d="M268.42 117.42h29.11v-44.1l-29.47 44.09c.11 0 .23.01.36.01" class="shp1"/><path id="P" fill-rule="evenodd" d="M595.44.62v190.6H404.83v-72.98l18.57-10.7 20.11-11.62-20.11-11.61-18.57-10.7V.62zm-51.05 78.81c0-17.76-15.98-32.24-35.68-32.24H472.4v97.43h35.88v-32.96h.43c19.7 0 35.68-14.42 35.68-32.23" style="fill:#ffb32f"/></svg>

<svg version="1.2" baseProfile="tiny-ps" xmlns="http://www.w3.org/2000/svg" viewBox="0 0 596 192">
	<title>I4P</title>
	<style>
		tspan { white-space:pre }
		.shp0 { fill: #5eb1c9 } 
		.shp1 { fill: #33373f } 
		.shp2 { fill: #ffb32f } 
	</style>
	<path id="I" fill-rule="evenodd" class="shp0" d="M221.21 95.52L191.08 112.87L191.08 191.22L0.47 191.22L0.47 0.62L191.08 0.62L191.08 78.13L221.21 95.52ZM114.89 47.19L76.69 47.19L76.69 144.62L114.89 144.62L114.89 47.19Z" />
	<path id="4" fill-rule="evenodd" class="shp1" d="M423.4 95.52L393.27 112.87L393.27 191.22L202.67 191.22L202.67 118.24L221.24 107.54L241.34 95.92L221.24 84.31L202.67 73.61L202.67 0.62L393.27 0.62L393.27 78.13L423.4 95.52ZM352.91 117.41L334.93 117.41L334.93 108.12C334.93 108.12 334.93 108.12 334.93 108.12L334.93 47.03L304.91 47.03L260.71 112.05L253 122.68L250.81 125.65C257.52 125.79 261.35 125.86 262.32 125.86L262.32 125.86L267.44 125.8L297.53 125.8L297.53 144.33L334.93 144.33L334.93 135.4C334.93 135.4 334.93 135.4 334.93 135.4L334.93 126.06L352.91 126.06L352.91 117.41Z" />
	<path id="in4" class="shp1" d="M268.42 117.42L297.53 117.42L297.53 73.32L268.06 117.41C268.17 117.41 268.29 117.42 268.42 117.42Z" />
	<path id="P" fill-rule="evenodd" class="shp2" d="M595.44 0.62L595.44 191.22L404.83 191.22L404.83 118.24L423.4 107.54L443.51 95.92L423.4 84.31L404.83 73.61L404.83 0.62L595.44 0.62ZM544.39 79.43C544.39 61.67 528.41 47.19 508.71 47.19L472.4 47.19L472.4 144.62L508.28 144.62L508.28 111.66L508.71 111.66C528.41 111.66 544.39 97.24 544.39 79.43Z" />
</svg>
